build/img/icon-basket.svg

<svg width="14" height="14" viewBox="0 0 14 14" xmlns="http://www.w3.org/2000/svg">
<path d="M13.3798 4.59316C13.3329 4.5283 13.2746 4.47622 13.209 4.44052C13.1434 4.40482 13.072 4.38633 12.9998 4.38634H9.9998V2.02272C9.9998 1.55256 9.84177 1.10167 9.56046 0.769217C9.27916 0.436768 8.89763 0.25 8.4998 0.25H5.4998C5.10198 0.25 4.72045 0.436768 4.43914 0.769217C4.15784 1.10167 3.9998 1.55256 3.9998 2.02272V4.38634H0.999803C0.927326 4.38537 0.855537 4.40303 0.78941 4.43811C0.723283 4.47318 0.664399 4.52483 0.616838 4.58947C0.569277 4.65411 0.534176 4.73019 0.513968 4.81246C0.493759 4.89472 0.488926 4.98119 0.499803 5.06588L1.4398 12.2454C1.47596 12.5272 1.59709 12.7841 1.78085 12.9687C1.96461 13.1533 2.19864 13.2531 2.4398 13.2499H11.5698C11.811 13.2531 12.045 13.1533 12.2288 12.9687C12.4125 12.7841 12.5336 12.5272 12.5698 12.2454L13.4998 5.06588C13.5098 4.98152 13.5043 4.8956 13.4836 4.814C13.4629 4.73241 13.4275 4.65707 13.3798 4.59316ZM4.9998 2.02272C4.9998 1.866 5.05248 1.7157 5.14625 1.60488C5.24002 1.49407 5.36719 1.43181 5.4998 1.43181H8.4998C8.63241 1.43181 8.75959 1.49407 8.85336 1.60488C8.94712 1.7157 8.9998 1.866 8.9998 2.02272V4.38634H4.9998V2.02272ZM11.5698 12.0681H2.4298L1.5848 5.56815H12.4148L11.5698 12.0681Z"/>
</svg>

<svg width="14" height="14" xmlns="http://www.w3.org/2000/svg"><path d="M13.38 4.593a.518.518 0 00-.171-.152.436.436 0 00-.21-.055h-3V2.023c0-.47-.157-.921-.439-1.254C9.28.437 8.898.25 8.5.25h-3c-.398 0-.78.187-1.06.52-.282.332-.44.783-.44 1.253v2.363H1a.435.435 0 00-.21.052.516.516 0 00-.173.151.63.63 0 00-.103.223.695.695 0 00-.014.254l.94 7.18c.036.281.157.538.34.723a.912.912 0 00.66.28h9.13a.913.913 0 00.659-.28c.184-.185.305-.442.34-.724l.93-7.18a.695.695 0 00-.015-.251.627.627 0 00-.104-.22zM5 2.023a.65.65 0 01.146-.418.465.465 0 01.354-.173h3c.132 0 .26.062.353.173A.65.65 0 019 2.023v2.363H5V2.023zm6.57 10.045H2.43l-.845-6.5h10.83l-.845 6.5z"/></svg>
